X: 10641
Q: "Andantino"
M: 6/8
L: 1/8
K: G
V: 1 clef=treble
"^Sy."GGG |\
fed dcB | {B}Az d dBB | BGG FAc | cBd gz f |
efd de^c | d2d afd | gz g afd | gzz ggg |\
az a d>ef | gzz g (f/g/) (f/g/) | a2c'/a/ g2a/f/ | g2z "^Sy."d'd'd' | b2z (d/^c/=c/B/A/d/) |
(f/e/)(g/f/)(e/d/) (d/c/)(e/d/)(c/B/) | (BA)z z2z | z6 | z6 | z6 |
z2d afd | g2g b/a/g/f/e/d/ | gzz ggg | az a d>ef |\
gzz g f/g/ f/g/ | a2c'/a/ g2a/f/ | g2z "^Sy."dg b/>g/ | (gf)z d>g b/g/ |
"_Sy."fz f dg b/>g/ | Tgfd d>g b/g/ | fzz bz a | gz f ez d |\
c/c/d/e/f/g/ a2a & czz x3 | bz b az a | gzz bz a | gz f ez d |
c/c/d/e/f/g/ a2a & czz x3 | bz b az a | (g//a//g//f//) g/a/b/c'/ d'/b/g/d/c/B/ | A2c'/a/ agf |\
(g//a//g//f//) g/a/b/c'/ d'/b/g/d/B/G/ | E2c'/>a/ d'2f | g2z "_Sy."d'>bc'/a/ | ggg gzz |]
V: 2 clef=treble
"[64.1]"
"[64.2]"
"[64.3]"
"[65.1]"
ddd | g2z (A2F) | Gzz z2z | z6 | z6 | z6 |
"[65.2]"
z2d dBB | BGG (F/G/A/B/)(c/d/) | cBd g2f | e>fd d>e^c | d2d =c2d |
"[65.3]"
"[66].1"
"[66].2"
ez B cz G | A/A/B/c/d/e/ f2f & Azz x3 | gz e cz d | Bzz gz d | ez B cz G |
"[66].2"
"[p.67.1]"





